Numix/scalable/status/weather-few-clouds-symbolic.svg

<?xml version="1.0" encoding="UTF-8" standalone="no"?>
<svg
   xmlns:dc="http://purl.org/dc/elements/1.1/"
   xmlns:cc="http://creativecommons.org/ns#"
   xmlns:rdf="http://www.w3.org/1999/02/22-rdf-syntax-ns#"
   xmlns:svg="http://www.w3.org/2000/svg"
   xmlns="http://www.w3.org/2000/svg"
   xmlns:sodipodi="http://sodipodi.sourceforge.net/DTD/sodipodi-0.dtd"
   xmlns:inkscape="http://www.inkscape.org/namespaces/inkscape"
   width="16"
   viewBox="0 0 16 16"
   height="16"
   style="enable-background:new"
   id="svg2"
   version="1.1"
   inkscape:version="0.91 r"
   sodipodi:docname="weather-few-clouds-symbolic.svg">
  <metadata
     id="metadata129">
    <rdf:RDF>
      <cc:Work
         rdf:about="">
        <dc:format>image/svg+xml</dc:format>
        <dc:type
           rdf:resource="http://purl.org/dc/dcmitype/StillImage" />
      </cc:Work>
    </rdf:RDF>
  </metadata>
  <sodipodi:namedview
     pagecolor="#ffffff"
     bordercolor="#666666"
     borderopacity="1"
     objecttolerance="10"
     gridtolerance="10"
     guidetolerance="10"
     inkscape:pageopacity="0"
     inkscape:pageshadow="2"
     inkscape:window-width="640"
     inkscape:window-height="480"
     id="namedview127" />
  <defs
     id="defs4" />
  <path
     style="fill:#bebebe"
     d="M 5.5520971,0.5 C 5.3457173,2.2741678 4.3601735,2.6918107 3.0107277,1.5866316 3.4740943,3.3077359 2.7170264,4.0824339 1.0628845,3.5974601 2.1254525,5.003478 1.7123398,6.0153565 0.00533,6.22442 1.5053331,7.1012981 1.4999268,8.2041452 0,9.075422 c 1.7090749,0.2142435 2.1113911,1.237317 1.0467628,2.638172 1.0060493,-0.29189 1.6751974,-0.1124 1.942448,0.453688 0.2174743,-0.669599 0.6657926,-1.258575 1.3111548,-1.54593 C 4.8403971,9.316856 6.1235731,8.1638149 7.5971305,8.2464509 8.6889242,8.1892687 9.728047,8.7663132 10.424471,9.6187468 11.052757,9.3520941 11.843264,9.3473265 12.53958,9.5851402 12.814156,9.3499438 13.235213,9.18474 13.807567,9.1146399 12.307538,8.2377403 12.312967,7.1349236 13.812956,6.2636287 12.103854,6.0493907 11.701569,5.0263261 12.766194,3.6254666 11.108211,4.1064935 10.361972,3.3205932 10.829142,1.6034357 9.474694,2.7064945 8.4999756,2.2776366 8.2985648,0.5056017 7.4538607,2.06273 6.391468,2.0571235 5.5521591,0.5000075 z m 2.1582753,8.8274848 c -0.1180375,0 -0.2440804,0.00574 -0.3723025,0.022405 -2.0477712,0.2674235 -1.9856132,2.0500362 -1.9856132,2.0500362 -0.8387354,0.144646 -1.5215839,0.887104 -1.5215839,1.663545 0,0.776425 0.8736387,1.463749 1.6079143,1.663564 0.4367747,0.118855 1.008994,0 1.008994,0 C 6.7070536,15.19094 7.5620092,15.5 8.1582138,15.5 c 0.9721472,0 1.9713302,-0.327253 2.2014402,-0.772965 0,0 4.025919,0.32686 4.861505,0 1.216436,-0.475841 0.83635,-1.961887 0.02698,-2.464526 -0.809365,-0.502636 -1.866898,-0.15124 -1.866898,-0.15124 0,0 -0.0047,-1.023306 -1.149281,-1.512323 -1.144608,-0.488996 -2.109714,0.593727 -2.109714,0.593727 0,0 -0.641337,-1.8541108 -2.4118716,-1.8651877 z"
     id="path125" />
</svg>

<svg xmlns="http://www.w3.org/2000/svg" viewBox="0 0 16 16" style="enable-background:new">
 <path d="m 5.552 0.5 c -0.206 1.774 -1.192 2.192 -2.541 1.087 0.463 1.721 -0.294 2.496 -1.948 2.01 1.063 1.406 0.649 2.418 -1.058 2.627 1.5 0.877 1.495 1.98 -0.005 2.851 c 1.709 0.214 2.111 1.237 1.047 2.638 1.01 -0.292 1.675 -0.112 1.942 0.454 0.217 -0.67 0.666 -1.259 1.311 -1.546 c 0.54 -1.304 1.823 -2.458 3.297 -2.375 1.092 -0.057 2.131 0.52 2.827 1.372 0.628 -0.267 1.419 -0.271 2.115 -0.034 0.275 -0.235 0.696 -0.4 1.268 -0.471 -1.5 -0.877 -1.495 -1.98 0.005 -2.851 -1.709 -0.214 -2.111 -1.237 -1.047 -2.638 -1.658 0.481 -2.404 -0.305 -1.937 -2.022 -1.354 1.103 -2.329 0.674 -2.531 -1.098 -0.845 1.557 -1.907 1.552 -2.746 -0.006 z m 2.158 8.827 c -0.118 0 -0.244 0.006 -0.372 0.022 -2.048 0.267 -1.986 2.05 -1.986 2.05 -0.839 0.145 -1.522 0.887 -1.522 1.664 0 0.776 0.874 1.464 1.608 1.664 0.437 0.119 1.01 0 1.01 0 c 0.259 0.464 1.114 0.773 1.71 0.773 c 0.972 0 1.971 -0.327 2.201 -0.773 0 0 4.03 0.327 4.862 0 1.216 -0.476 0.836 -1.962 0.027 -2.465 -0.809 -0.503 -1.867 -0.151 -1.867 -0.151 0 0 -0.005 -1.023 -1.149 -1.512 -1.145 -0.489 -2.11 0.594 -2.11 0.594 0 0 -0.641 -1.854 -2.412 -1.865 z" style="fill:#bebebe"/>
</svg>
